X: 190
T: Senjidema
L: 1/8
M: 4/4
K: A
e2>f2a3f [I:setbarnb 1]| 
a2c2c BA2 | 
a2e2f e c' b | 
a2>b2a4 | 
a2>b2e'3e' | 
c'2e'> f' c' ba2 | 
a2>b2 c' e' a f | 
e2>f2e4 | 
a2e f2<a2f | 
a2c2cB2c | 
e fa2a2c B | 
A4z4 | 
a2e2f e c' b | 
a2>b2g2f2 | 
e2>f2a3f | 
a2c2cB2c | 
e fa2a2c B | 
A4A3B | 
c ef2a2c B | 
A Be2A4 |]

@@@ Tune index: 8858
